X: 1411
T: Mâye-i Aşk-ı Dilimdir
C: Ahmet Avni Konuk
O: Turkey
F: http://compmusic.upf.edu/node/140
N: segah-maye--kupe--darb--maye-i--ahmet_avni_konuk
N: makam= segah-maye
N: form= kupe
N: usul= darb = 6/4
M: 6/4
L: 1/16
K: C _1/4B _1/4e ^f 
Q: 1/4=84
%%MIDI tuningsystem comma53
e4 e2d2 d4 c8 B4  | BABc B2A2 A8 B6z2  | \
w:  Mâ *  *  ye   |  i  *  *  *  *  *  aşk_  | 
G8 B4 A2B2 c4 d4  | 
w:  ı  di  | 
d2c2 _2/4B2A2 G14z2  | G8 A14z2  | G4 A4 _2/4B4 A2B2 c4 B2A2  | \
w:  lim *  *  *  dir   |  bu  ma  |  kâ *  mın   | 
=f4 =e2d2 d4 c8 d4  | 
w:  nağ *  *  me  | 
d2c2 B2^3/4A2 B14z2  | d2c2 B2c2 d14z2  | \
w:  si    |  İn *  *  *  le  | 
e2d2 e2=f2 d14z2  | d8 g4 =f4 f4 f2e2  | 
w:  tir  *  *  *  rûh_  |  i  re  | 
e4 e2d2 dcde d2c2 B2^3/4A2 B4  | G2A2 B2d2 c12 c2B2  | \
w:  vân_ *  *  ı   |  dil *  *  *  de   | 
A4 B4 d2c2 c2d2 c2d2 c2B2  | 
w:  bu  *  ten   | 
=f4 e2d2 d4 c8 d4  | d2c2 B2^3/4A2 B14z2  | |


